X:1
T:James Gibb editions
T:O sacrum convivium - Mantua
T:#
%%score [ 1 2 3 4 ]
L:1/8
Q:1/4=108
M:2/2
K:Bb
V:1 treble nm="Soprano" snm="S"
V:2 treble nm="Alto" snm="A"
V:3 treble-8 nm="Tenor" snm="T"
V:4 bass nm="Bass" snm="B"
V:1
"^O sacrum convivium""^Jacquet de Mantua\n(1483-1559)" z8 | z8 | z8 | z8 | G8 | F4 E4- | E2 C2 E4 | %7
w: ||||O|sa- crum|* con- vi-|
 D4 C4 | c8 |[M:2/2] B4 c4- | c2 G2 (B4 | _A4 G2 B2- | B_A G3 F/=E/) F2 | G8- | G4 z2 c2- | %15
w: vi- um,|O|sa- crum|* con- vi\-||* * * * * vi-|um|* in|
 c2 B2 c2 G2 | B2 _A2 G4- | G8 | z8 | z2 B4 A2 | B2 A4 (B2- | BA G4) ^F2 | G8- | G8 | z2 G2 B4- | %25
w: * quo Chri- stus|su- mi- tur,|||in quo|Chri- stus su\-|* * * mi-|tur:||re- co\-|
 B2 B2 A2 (B2- | BA) G4 ^F2 | G8 | z4 z2 c2- | c2 B2 _A2 G2 | _A4 G4 | z2 (G4 F2) | G8- | G8 | %34
w: * li- tur me\-|* * mo- ri-|a|pas\-|* si- o- nis|e- jus,|e\- *|jus:||
 z4 z2 G2- | G2 F2 B4- | B2 A2 G2 G2 | G8 | z2 G4 F2 | G8- | G4 z4 | z8 | z8 | z2 B4 B2 | c6 A2 | %45
w: mens|* im- ple\-|* tur gra- ti-|a,|gra- ti-|a:||||et fu-|tu- rae|
 (B6 AG | F2 G4) F2 | G8- | G8 | z8 | z8 | z8 | z4 z2 G2- | G2 F2 (B4- | B2 G2) _A4 | %55
w: glo\- * *|* * ri-|ae|||||no\-|* bis pi\-|* * gnus|
 (G3 F/E/ D2 G2- | G2 F2) G4 | z2 c4 B2 | _A2 G4 A2- | A2 (G3 F/E/) F2 | G4 z2 c2- | %61
w: da\- * * * *|* * tur.|Al- le-|lu- ia, al\-|* le\- * * lu-|ia, al\-|
 c2 B2 _A2 G2- | G2 _A4 (G2- | GF/E/) F2[Q:1/4=106] G4 | %64
w: * le- lu- ia,|* al- le\-|* * * lu- ia,|
[Q:1/4=103] z2[Q:1/4=101] E4[Q:1/4=98] (F2- |[Q:1/4=97] F2[Q:1/4=95] G2)[Q:1/4=93] _A4 | %66
w: al- le\-|* * lu-|
[Q:1/4=92] G4 |] %67
w: ia.|
V:2
 z8 | z8 | z8 | z8 | z8 | z8 | G8 | F4 E4- | E2 C2 (E4 |[M:2/2] D4 C2 E2- | E2 DC D4 | C2 E4 DC | %12
w: ||||||O|sa- crum|* con- vi\-||||
 B,2 D3 C) (C2- | C2 =B,2) C4 | z8 | z8 | z8 | z4 z2 G2- | G2 F2 G2 D2 | E2 D2 B,2 F2 | D2 F4 F2 | %21
w: * * * vi\-|* * um||||in|* quo Chri- stus|su- mi- tur, in|quo Chri- stus|
 G2 C2 D4- | D4 z4 | z8 | z2 C2 G4- | G2 G2 F2 D2 | F2 G2 D4 | z8 | z2 G4 F2 | (E2 D2) E4 | %30
w: su- mi- tur:|||re- co\-|* li- tur me-|mo- ri- a||pas- si-|o\- * nis|
 (D2 CD) (EF) (G2- | GF E3) D (C2- | C2 B,2) E4 | D4 C4 | z8 | z2 C4 B,2 | E6 D2 | (G3 F E4- | %38
w: e\- * * jus, * pas\-|* * * si- o\-|* * nis|e- jus:||mens im-|ple- tur|gra\- * *|
 E2 B,2 C4) | D4 C2 G2- | G4 _A2 A2- | A2 F2 (B4 | _A2 G4 F2 | G2 D4) B,2 | F4 (F3 E) | %45
w: |ti- a: et|* fu- tu\-|* rae glo\-||* * ri-|ae, et *|
 (DC) (D4 C2) | D8 | (D2 E6) | D4 C4 | z2 C4 B,2 | E6 C2 | D4 C4 | z2 (B,3 C D2- | DC) (C4 B,A, | %54
w: fu\- * tu\- *|rae|glo\- *|ri- ae|no- bis|pi- gnus|da- tur,|no\- * *|* * bis * *|
 B,2) (D2 E2 F2- | FEDC B,2) (D2- | DC) (C4 B,2) | C4 z4 | z8 | z4 z2 c2- | c2 B2 _A2 G2- | %61
w: * pi\- * *|* * * * * gnus|* * da\- *|tur.||Al\-|* le- lu- ia,|
 G2 F2 E2 D2 | C8 | z2 c4 B2 | (_A2 G2 A4- | A2 G2 F4) | =E4 |] %67
w: * al- le- lu-|ia,|al- le-|lu\- * *||ia.|
V:3
 d8 | c4 B4- | B2 G2 (B4 | A4 G2 g2- | gf e3 d c2- | cB/A/) B2 c4- | c4 z4 | z8 | g8 | %9
w: O|sa- crum|* con- vi\-|||* * * vi- um,|||O|
[M:2/2][K:treble-8] f4 g4- | g2 e2 (f4 | e8 | d4 c4) | d4 c4 | z2 g4 f2 | g2 d2 e2 e2 | d2 e4 d2 | %17
w: sa- crum|* con- vi\-|||vi- um|in quo|Chri- stus su- mi-|tur, in quo|
 (e3 d/c/) B2 (d2- | d2 c4) B2 | (c2 d2) z2 d2- | d2 d2 (c2 d2) | (d2 G2) A2 A2 | G2 d2 e4- | %23
w: Chri\- * * stus su\-|* * mi-|tur, * in|* quo Chri\- *|stus * su- mi-|tur: re- co\-|
 e2 e2 d2 B2 | d2 e2 d4- | d8 | d4 z4 | z2 e4 d2 | c2 B2 c4 | g4 z4 | z2 e4 d2 | (c2 B2) c4 | %32
w: * li- tur me-|mo- ri- a|||pas- si-|o- nis e-|jus,|pas- si-|o\- * nis|
 d4 c4 | z4 z2 c2- | c2 B2 e2 d2 | d2 c2 (d4- | c4 z4 | z2 c4 B2 | e2 (d3 c) c2- | c2 =B2 c4 | %40
w: e- jus:|mens|* im- ple- tur|gra- ti- a,||mens im-|ple- tur * gra\-|* ti- a:|
 z2 e4 e2 | f6 d2 | e4 c4 | d8 | z2 c4 c2 | B4 G4 | A4 A4 | G4 z2 c2- | c2 B2 e4- | e2 c2 d4 | c8 | %51
w: et fu-|tu- rae|glo- ri-|ae,|et fu-|tu- rae|glo- ri-|ae no\-|* bis pi\-|* gnus da-|tur,|
 z2 B4 A2 | d6 B2 | c4 d4 | G2 B2 c4 | d6 B2) | (c4 d4) | c2 g4 f2 | e2 d2 e4- | e2 d2 (c4- | %60
w: no- bis|pi- gnus|da- tur.|Al- le- lu\-||ia, *|al- le- lu-|ia, al- le\-|* lu- ia,|
 d4 c4) | z8 | z2 e4 d2 | (c4 d4) | c8- | c8 | c4 |] %67
w: ||al- le-|lu\- *|ia.|||
V:4
 z8 | z8 | G,8 | F,4 (E,4 | E,2) C,2 (E,4 | D,4 C,2 C2- | CB, CB,/A,/ G,2 C2- | C2) B,2 C4- | C8 | %9
w: ||O|sa- crum|* con- vi\-|||* vi- um,||
[M:2/2] z4 C4- | C4 B,4 | C6 G,2 | (B,4 _A,4 | G,4 C,2 C2- | CG, B,2 _A,4) | G,4 C,4 | z2 C4 B,2 | %17
w: O|* sa-|crum con-|vi\- *|||vi- um|in quo|
 C2 G,2 B,4 | _A,4 G,4 | z2 G,4 F,2 | G,2 D,2 F,4 | E,4 D,4 | z2 G,2 C4- | C2 C2 B,2 G,2 | %24
w: Chri- stus su-|mi- tur,|in quo|Chri- stus su-|mi- tur:|re- co\-|* li- tur me-|
 B,2 C2 G,4 | z2 G,2 D,2 G,2 | D,2 G,2 B,2 D2 | G,2 C4 B,2 | (_A,2 G,2) A,4 | G,4 C4 | z2 C4 B,2 | %31
w: mo- ri- a,|re- co- li-|tur me- mo- ri-|a pas- si-|o\- * nis|e- jus,|pas- si-|
 (_A,2 G,2) A,4 | G,4 C,2 C2- | C2 B,2 (E4- | E2 D2 C2) B,2 | _A,2 A,2 G,4 | z2 C4 B,2 | (E6 D2 | %38
w: o\- * nis|e- jus: mens|* im- ple\-|* * * tur|gra- ti- a,|mens im-|ple\- *|
 C2) B,2 _A,2 A,2 | (G,4 C,4) | z2 C4 C2 | D6 B,2 | C4 _A,4 | G,8 | z2 F,4 F,2 | G,4 E,4 | %46
w: * tur gra- ti-|a: *|et fu-|tu- rae|glo- ri-|ae,|et fu-|tu- rae|
 D,4 D,4 | G,2 (C,3 D,E,F, | G,2) G,2 C,2 (C2- | C2 B,A,) G,4 | C,8 | z2 G,4 F,2 | B,6 G,2 | %53
w: glo- ri-|ae, glo\- * * *|* ri- ae, glo\-|* * * ri-|ae|no- bis|pi- gnus|
 _A,4 G,4 | z2 G,4 F,2 | B,6 G,2 | _A,4 G,4 | C,2 E4 D2 | C2 B,2 C4- | C2 B,2 _A,4 | G,4 z2 E2- | %61
w: da- tur,|no- bis|pi- gnus|da- *|tur. Al- le-|lu- ia, al\-|* le- lu-|ia, al\-|
 E2 D2 C2 B,2 | C6 B,2 | _A,4 G,4 | z2 C,4 (F,2- | F,2 =E,2) F,4 | C,4 |] %67
w: * le- lu- ia,|al- le-|lu- ia,|al- le\-|* * lu-|ia.|

